app/_includes/svgs/social/social-instagram.min.svg

<svg viewBox="0 0 103 103" enable-background="new 0 0 103 103"><circle fill="#fff" stroke="#373737" stroke-width="3" stroke-miterlimit="10" cx="51.5" cy="51.3" r="50"/><path fill="none" d="M28 28.3h47v47h-47z"/><path fill="#373737" d="M64.2 40.9c-1 0-1.8-.8-1.8-1.8v-3.6c0-1 .8-1.8 1.8-1.8h3.6c1 0 1.8.8 1.8 1.8v3.6c0 1-.8 1.8-1.8 1.8h-3.6z"/><path fill="#373737" d="M51.5 44.9c-1.3 0-2.5.4-3.6 1 .3-.1.7-.2 1-.2 1.9 0 3.5 1.6 3.5 3.5s-1.6 3.5-3.5 3.5-3.5-1.6-3.5-3.5c0-.4.1-.7.2-1-.6 1-1 2.3-1 3.6 0 3.8 3.1 6.9 6.9 6.9 3.8 0 6.9-3.1 6.9-6.9s-3.1-6.9-6.9-6.9z"/><path fill="#373737" d="M51.5 40.9c6 0 10.8 4.9 10.8 10.8s-4.9 10.8-10.8 10.8c-6 0-10.8-4.9-10.8-10.8s4.8-10.8 10.8-10.8m0-3.6c-8 0-14.5 6.5-14.5 14.5s6.5 14.5 14.5 14.5 14.5-6.6 14.5-14.5-6.5-14.5-14.5-14.5z"/><path fill="#373737" d="M66.2 28.2h-29.4c-4.9 0-8.8 3.9-8.8 8.8v29.4c0 4.9 3.9 8.8 8.8 8.8h29.4c4.9 0 8.8-3.9 8.8-8.8v-29.3c0-4.9-3.9-8.9-8.8-8.9zm5.2 16.3h-11.8c1.7 1.9 2.8 4.4 2.8 7.2 0 6-4.9 10.8-10.8 10.8-6 0-10.8-4.9-10.8-10.8 0-2.8 1.1-5.3 2.8-7.2h-12v-7.5c0-2.9 2.3-5.2 5.2-5.2h29.4c2.9 0 5.2 2.3 5.2 5.2v7.5z"/></svg>

<svg viewBox="0 0 103 103" enable-background="new 0 0 103 103"><circle fill="#fff" stroke="#373737" stroke-width="3" stroke-miterlimit="10" cx="51.5" cy="51.3" r="50"/><path fill="none" d="M28 28.3H75V75.3H28z"/><path fill="#373737" d="M64.2,40.9c-1,0-1.8-0.8-1.8-1.8v-3.6c0-1,0.8-1.8,1.8-1.8h3.6c1,0,1.8,0.8,1.8,1.8v3.6c0,1-0.8,1.8-1.8,1.8H64.2L64.2,40.9	z"/><path fill="#373737" d="M51.5,44.9c-1.3,0-2.5,0.4-3.6,1c0.3-0.1,0.7-0.2,1-0.2c1.9,0,3.5,1.6,3.5,3.5c0,1.9-1.6,3.5-3.5,3.5	c-1.9,0-3.5-1.6-3.5-3.5c0-0.4,0.1-0.7,0.2-1c-0.6,1-1,2.3-1,3.6c0,3.8,3.1,6.9,6.9,6.9c3.8,0,6.9-3.1,6.9-6.9S55.3,44.9,51.5,44.9z"/><path fill="#373737" d="M51.5,40.9c6,0,10.8,4.9,10.8,10.8s-4.9,10.8-10.8,10.8c-6,0-10.8-4.9-10.8-10.8S45.5,40.9,51.5,40.9 M51.5,37.3 c-8,0-14.5,6.5-14.5,14.5s6.5,14.5,14.5,14.5S66,59.7,66,51.8S59.5,37.3,51.5,37.3L51.5,37.3z"/><path fill="#373737" d="M66.2,28.2H36.8c-4.9,0-8.8,3.9-8.8,8.8v29.4c0,4.9,3.9,8.8,8.8,8.8h29.4c4.9,0,8.8-3.9,8.8-8.8V37.1	C75,32.2,71.1,28.2,66.2,28.2z M71.4,44.5H59.6c1.7,1.9,2.8,4.4,2.8,7.2c0,6-4.9,10.8-10.8,10.8c-6,0-10.8-4.9-10.8-10.8	c0-2.8,1.1-5.3,2.8-7.2H31.6v-7.5c0-2.9,2.3-5.2,5.2-5.2h29.4c2.9,0,5.2,2.3,5.2,5.2V44.5z"/></svg>
